src/24/panel/night-light-disabled-symbolic.svg

<svg xmlns="http://www.w3.org/2000/svg" width="24" height="24" version="1.1">
 <defs>
  <style id="current-color-scheme" type="text/css">
   .ColorScheme-Text { color:#bebebe; } .ColorScheme-Highlight { color:#5294e2; }
  </style>
 </defs>
 <path style="fill:currentColor" class="ColorScheme-Text" d="M 12 3 C 11.446 3 11 3.446 11 4 L 11 6.0917969 A 6 6 0 0 1 13 6.0898438 L 13 4 C 13 3.446 12.554 3 12 3 z M 6.34375 5.3417969 C 6.0881309 5.3417969 5.8325873 5.4408502 5.6367188 5.6367188 C 5.2449816 6.0284559 5.2449816 6.6590441 5.6367188 7.0507812 L 7.1152344 8.5292969 A 6 6 0 0 1 7.7578125 7.7578125 A 6 6 0 0 1 8.5253906 7.1113281 L 7.0507812 5.6367188 C 6.8549127 5.4408502 6.5993691 5.3417969 6.34375 5.3417969 z M 17.65625 5.3417969 C 17.400631 5.3417969 17.145087 5.4408502 16.949219 5.6367188 L 15.470703 7.1152344 A 6 6 0 0 1 16.242188 7.7578125 A 6 6 0 0 1 16.888672 8.5253906 L 18.363281 7.0507812 C 18.755018 6.6590441 18.755018 6.0284559 18.363281 5.6367188 C 18.167413 5.4408502 17.911869 5.3417969 17.65625 5.3417969 z M 11.927734 7 A 5 5 0 0 0 8.4648438 8.4648438 A 5 5 0 0 0 8.4648438 15.535156 A 5 5 0 0 0 15.535156 15.535156 A 5 5 0 0 0 15.535156 8.4648438 A 5 5 0 0 0 11.927734 7 z M 4 11 C 3.446 11 3 11.446 3 12 C 3 12.554 3.446 13 4 13 L 6.0917969 13 A 6 6 0 0 1 6.0898438 11 L 4 11 z M 17.908203 11 A 6 6 0 0 1 17.910156 13 L 20 13 C 20.554 13 21 12.554 21 12 C 21 11.446 20.554 11 20 11 L 17.908203 11 z M 16.884766 15.470703 A 6 6 0 0 1 16.242188 16.242188 A 6 6 0 0 1 15.474609 16.888672 L 16.949219 18.363281 C 17.340956 18.755018 17.971544 18.755018 18.363281 18.363281 C 18.755018 17.971544 18.755018 17.340956 18.363281 16.949219 L 16.884766 15.470703 z M 7.1113281 15.474609 L 5.6367188 16.949219 C 5.2449816 17.340956 5.2449816 17.971544 5.6367188 18.363281 C 6.0284559 18.755018 6.6590441 18.755018 7.0507812 18.363281 L 8.5292969 16.884766 A 6 6 0 0 1 7.7578125 16.242188 A 6 6 0 0 1 7.1113281 15.474609 z M 13 17.908203 A 6 6 0 0 1 11 17.910156 L 11 20 C 11 20.554 11.446 21 12 21 C 12.554 21 13 20.554 13 20 L 13 17.908203 z"/>
</svg>

<svg xmlns="http://www.w3.org/2000/svg" width="24" height="24"><defs><style id="current-color-scheme" type="text/css"></style></defs><path d="M12 3c-.554 0-1 .446-1 1v2.092a6 6 0 0 1 2-.002V4c0-.554-.446-1-1-1zM6.344 5.342c-.256 0-.511.099-.707.295a.998.998 0 0 0 0 1.414l1.478 1.478a6 6 0 0 1 .643-.771 6 6 0 0 1 .767-.647L7.051 5.637a.998.998 0 0 0-.707-.295zm11.312 0c-.255 0-.51.099-.707.295l-1.478 1.478a6 6 0 0 1 .771.643 6 6 0 0 1 .647.767l1.474-1.474a.998.998 0 0 0 0-1.414.998.998 0 0 0-.707-.295zM11.928 7a5 5 0 0 0-3.463 1.465 5 5 0 0 0 0 7.07 5 5 0 0 0 7.07 0 5 5 0 0 0 0-7.07A5 5 0 0 0 11.928 7zM4 11c-.554 0-1 .446-1 1s.446 1 1 1h2.092a6 6 0 0 1-.002-2H4zm13.908 0a6 6 0 0 1 .002 2H20c.554 0 1-.446 1-1s-.446-1-1-1h-2.092zm-1.023 4.47a6 6 0 0 1-.643.772 6 6 0 0 1-.767.647l1.474 1.474a.998.998 0 0 0 1.414 0 .998.998 0 0 0 0-1.414l-1.478-1.478zm-9.774.005l-1.474 1.474a.998.998 0 0 0 0 1.414.998.998 0 0 0 1.414 0l1.478-1.478a6 6 0 0 1-.771-.643 6 6 0 0 1-.647-.767zM13 17.908a6 6 0 0 1-2 .002V20c0 .554.446 1 1 1s1-.446 1-1v-2.092z" fill="currentColor" color="#bebebe"/></svg>
